X: 3284
T: The PIPER'S BONNET
%R: jig
B: James Kerr "Merry Melodies" v.3 p.31 #284
Z: 2016 John Chambers <jc:trillian.mit.edu>
M: 6/8
L: 1/8
K: Am
(B/d/) |\
e2A e2d | e2A A2(B/d/) | e2A e2d | B2G G2(B/d/) |\
e2A e2d | e2A c2A | BBg ddg | B2G G2 :|
|: (B/d/) |\
e2A a2A | e2A A2(B/d/) | e2A a2A | B2G G2(B/d/) |\
e2A a2A | e2A c2A | BBg ddg | B2G G2 :|

%%sep 1 1 500
%%sep 1 1 500

